core/assets/icons/calls_incomming.outline.svg

<svg width="24" height="24" viewBox="0 0 24 24" xmlns="http://www.w3.org/2000/svg"><g id="calls-incomming=outline"><g id="Union"><path fill-rule="evenodd" clip-rule="evenodd" d="M8.89911 3.97217C9.03235 5.66823 9.52302 7.31688 10.3389 8.80978C10.4629 9.03626 10.4996 9.30034 10.442 9.55204C10.3844 9.80374 10.2366 10.0256 10.0264 10.1757L8.71967 11.1088C9.71013 12.8488 11.1512 14.2899 12.8912 15.2803L13.8243 13.9736C13.9744 13.7634 14.1963 13.6156 14.448 13.558C14.6997 13.5004 14.9637 13.5371 15.1902 13.6611C16.6831 14.477 18.3318 14.9677 20.0278 15.1009C20.2925 15.1219 20.5396 15.2418 20.7198 15.4369C20.9 15.6319 21 15.8877 21 16.1533V20.8632C21.0001 21.1245 20.9032 21.3766 20.7281 21.5706C20.5529 21.7646 20.3121 21.8868 20.0521 21.9134C19.4927 21.9715 18.929 22 18.3611 22C9.32556 22 2 14.6744 2 5.63889C2 5.071 2.0285 4.50733 2.08656 3.94789C2.11321 3.6879 2.23537 3.44705 2.42939 3.27195C2.62341 3.09684 2.87548 2.99994 3.13683 3H7.84672C8.11226 2.99997 8.36806 3.10002 8.56311 3.2802C8.75816 3.46038 8.87813 3.70746 8.89911 3.97217ZM6.79881 10.6861L8.88969 9.19306C8.13242 7.71552 7.65385 6.1111 7.47793 4.46025H3.50605C3.47542 4.84994 3.46025 5.24278 3.46025 5.63889C3.46025 13.868 10.132 20.5398 18.3611 20.5398C18.7572 20.5398 19.1501 20.5246 19.5398 20.494V16.5221C17.8889 16.3462 16.2845 15.8676 14.8069 15.1103L13.3139 17.2012L12.1689 16.5494C10.2008 15.4291 8.57088 13.7992 7.45061 11.8311L6.79881 10.6861Z"/><path d="M15.5 7.46973V3.28027H14V10.0303H20.75V8.53027H16.5608L21.0304 4.06066L19.9697 3L15.5 7.46973Z"/></g></g></svg>

<svg xmlns="http://www.w3.org/2000/svg" width="24" height="24" fill="none"><g fill="#191C22"><path fill-rule="evenodd" d="M8.9 3.972a12.056 12.056 0 0 0 1.439 4.838 1.055 1.055 0 0 1-.313 1.366l-1.306.933a11.143 11.143 0 0 0 4.171 4.171l.933-1.306a1.056 1.056 0 0 1 1.366-.313 12.056 12.056 0 0 0 4.838 1.44A1.056 1.056 0 0 1 21 16.153v4.71a1.055 1.055 0 0 1-.948 1.05c-.56.058-1.123.087-1.69.087C9.325 22 2 14.674 2 5.639c0-.568.029-1.132.087-1.691A1.055 1.055 0 0 1 3.137 3h4.71a1.056 1.056 0 0 1 1.052.972Zm-2.101 6.714 2.09-1.493A13.517 13.517 0 0 1 7.479 4.46H3.506c-.03.39-.046.783-.046 1.179 0 8.229 6.672 14.9 14.901 14.9.396 0 .79-.014 1.179-.045v-3.972a13.517 13.517 0 0 1-4.733-1.412l-1.493 2.091-1.145-.652a12.603 12.603 0 0 1-4.718-4.718l-.652-1.145Z" clip-rule="evenodd"/><path d="M15.5 7.47V3.28H14v6.75h6.75v-1.5h-4.19l4.47-4.47L19.97 3 15.5 7.47Z"/></g></svg>
